src/girl.svg

<svg width="264px" height="280px" viewBox="0 0 264 280" version="1.1" xmlns="http://www.w3.org/2000/svg" xmlns:xlink="http://www.w3.org/1999/xlink" style="width: 200px; height: 200px;"><desc>Created with getavataaars.com</desc><defs><circle id="react-path-1" cx="120" cy="120" r="120"></circle><path d="M12,160 C12,226.27417 65.72583,280 132,280 C198.27417,280 252,226.27417 252,160 L264,160 L264,-1.42108547e-14 L-3.19744231e-14,-1.42108547e-14 L-3.19744231e-14,160 L12,160 Z" id="react-path-2"></path><path d="M124,144.610951 L124,163 L128,163 L128,163 C167.764502,163 200,195.235498 200,235 L200,244 L0,244 L0,235 C-4.86974701e-15,195.235498 32.235498,163 72,163 L72,163 L76,163 L76,144.610951 C58.7626345,136.422372 46.3722246,119.687011 44.3051388,99.8812385 C38.4803105,99.0577866 34,94.0521096 34,88 L34,74 C34,68.0540074 38.3245733,63.1180731 44,62.1659169 L44,56 L44,56 C44,25.072054 69.072054,5.68137151e-15 100,0 L100,0 L100,0 C130.927946,-5.68137151e-15 156,25.072054 156,56 L156,62.1659169 C161.675427,63.1180731 166,68.0540074 166,74 L166,88 C166,94.0521096 161.51969,99.0577866 155.694861,99.8812385 C153.627775,119.687011 141.237365,136.422372 124,144.610951 Z" id="react-path-3"></path></defs><g id="Avataaar" stroke="none" stroke-width="1" fill="none" fill-rule="evenodd"><g transform="translate(-825.000000, -1100.000000)" id="Avataaar/Circle"><g transform="translate(825.000000, 1100.000000)"><g id="Mask"></g><g id="Avataaar" stroke-width="1" fill-rule="evenodd" mask="url(#react-mask-5)"><g id="Body" transform="translate(32.000000, 36.000000)"><mask id="react-mask-6" fill="white"><use xlink:href="#react-path-3"></use></mask><use fill="#D0C6AC" xlink:href="#react-path-3"></use><g id="Skin/👶🏽-03-Brown" mask="url(#react-mask-6)" fill="#FD9841"><g transform="translate(0.000000, 0.000000)" id="Color"><rect x="0" y="0" width="264" height="280"></rect></g></g><path d="M156,79 L156,102 C156,132.927946 130.927946,158 100,158 C69.072054,158 44,132.927946 44,102 L44,79 L44,94 C44,124.927946 69.072054,150 100,150 C130.927946,150 156,124.927946 156,94 L156,79 Z" id="Neck-Shadow" fill-opacity="0.100000001" fill="#000000" mask="url(#react-mask-6)"></path></g><g id="Clothing/Shirt-Crew-Neck" transform="translate(0.000000, 170.000000)"><defs><path d="M165.960472,29.2949161 C202.936473,32.3249982 232,63.2942856 232,101.051724 L232,110 L32,110 L32,101.051724 C32,62.9525631 61.591985,31.7649812 99.0454063,29.2195264 C99.0152598,29.5931145 99,29.9692272 99,30.3476251 C99,42.2107177 113.998461,51.8276544 132.5,51.8276544 C151.001539,51.8276544 166,42.2107177 166,30.3476251 C166,29.9946691 165.986723,29.6437014 165.960472,29.2949161 Z" id="react-path-289"></path></defs><mask id="react-mask-290" fill="white"><use xlink:href="#react-path-289"></use></mask><use id="Clothes" fill="#E6E6E6" fill-rule="evenodd" xlink:href="#react-path-289"></use><g id="Color/Palette/Gray-01" mask="url(#react-mask-290)" fill-rule="evenodd" fill="#B1E2FF"><rect id="🖍Color" x="0" y="0" width="264" height="110"></rect></g><g id="Shadowy" opacity="0.599999964" stroke-width="1" fill-rule="evenodd" mask="url(#react-mask-290)" fill-opacity="0.16" fill="#000000"><g transform="translate(92.000000, 4.000000)" id="Hola-👋🏼"><ellipse cx="40.5" cy="27.8476251" rx="39.6351047" ry="26.9138272"></ellipse></g></g></g><g id="Face" transform="translate(76.000000, 82.000000)" fill="#000000"><g id="Mouth/Smile" transform="translate(2.000000, 52.000000)"><defs><path d="M35.117844,15.1280772 C36.1757121,24.6198025 44.2259873,32 54,32 C63.8042055,32 71.8740075,24.574136 72.8917593,15.0400546 C72.9736685,14.272746 72.1167429,13 71.042767,13 C56.1487536,13 44.7379213,13 37.0868244,13 C36.0066168,13 35.0120058,14.1784435 35.117844,15.1280772 Z" id="react-path-295"></path></defs><mask id="react-mask-296" fill="white"><use xlink:href="#react-path-295"></use></mask><use id="Mouth" fill-opacity="0.699999988" fill="#000000" fill-rule="evenodd" xlink:href="#react-path-295"></use><rect id="Teeth" fill="#FFFFFF" fill-rule="evenodd" mask="url(#react-mask-296)" x="39" y="2" width="31" height="16" rx="5"></rect><g id="Tongue" stroke-width="1" fill-rule="evenodd" mask="url(#react-mask-296)" fill="#FF4F6D"><g transform="translate(38.000000, 24.000000)"><circle cx="11" cy="11" r="11"></circle><circle cx="21" cy="11" r="11"></circle></g></g></g><g id="Nose/Default" transform="translate(28.000000, 40.000000)" fill-opacity="0.16"><path d="M16,8 C16,12.418278 21.372583,16 28,16 L28,16 C34.627417,16 40,12.418278 40,8" id="Nose"></path></g><g id="Eyes/Surprised-😳" transform="translate(0.000000, 8.000000)"><circle id="The-White-Stuff" fill="#FFFFFF" cx="30" cy="22" r="14"></circle><circle id="Eye-Ball" fill="#FFFFFF" cx="82" cy="22" r="14"></circle><circle id="Eye" fill-opacity="0.699999988" fill="#000000" cx="30" cy="22" r="6"></circle><circle id="Eye" fill-opacity="0.699999988" fill="#000000" cx="82" cy="22" r="6"></circle></g><g id="Eyebrow/Outline/Default" fill-opacity="0.599999964"><g id="I-Browse" transform="translate(12.000000, 6.000000)"><path d="M3.63024536,11.1585767 C7.54515501,5.64986673 18.2779197,2.56083721 27.5230268,4.83118046 C28.5957248,5.0946055 29.6788665,4.43856013 29.9422916,3.36586212 C30.2057166,2.2931641 29.5496712,1.21002236 28.4769732,0.94659732 C17.7403633,-1.69001789 5.31209962,1.88699832 0.369754639,8.84142326 C-0.270109626,9.74178291 -0.0589363917,10.9903811 0.84142326,11.6302454 C1.74178291,12.2701096 2.9903811,12.0589364 3.63024536,11.1585767 Z" id="Eyebrow" fill-rule="nonzero"></path><path d="M61.6302454,11.1585767 C65.545155,5.64986673 76.2779197,2.56083721 85.5230268,4.83118046 C86.5957248,5.0946055 87.6788665,4.43856013 87.9422916,3.36586212 C88.2057166,2.2931641 87.5496712,1.21002236 86.4769732,0.94659732 C75.7403633,-1.69001789 63.3120996,1.88699832 58.3697546,8.84142326 C57.7298904,9.74178291 57.9410636,10.9903811 58.8414233,11.6302454 C59.7417829,12.2701096 60.9903811,12.0589364 61.6302454,11.1585767 Z" id="Eyebrow" fill-rule="nonzero" transform="translate(73.000154, 6.039198) scale(-1, 1) translate(-73.000154, -6.039198) "></path></g></g></g><g id="Top" stroke-width="1" fill-rule="evenodd"><defs><rect id="react-path-407" x="0" y="0" width="264" height="280"></rect><path d="M38,79.3595521 L38,111 C38,133.339168 51.0804213,152.623239 70,161.610951 L70,174.74565 C50.3625813,177.434228 34.6409914,182.163507 23.3845374,181.000327 C9.16164761,179.530612 1.49623627,150.795665 1,126 C0.382878875,95.1640258 29.3189583,30.7950013 40,18 C47.9231015,8.50878211 69.6952966,0.550643437 94.0001685,1 C118.30504,1.44935656 140.861928,6.81215989 149.000169,17 C161.324059,32.4276364 186.868727,91.0786423 187.000169,126 C187.093514,150.800049 177.46255,175.65995 164.000169,177 C152.920532,178.102871 137.475571,175.511343 118,173.997342 L118,161.610951 C136.919579,152.623239 150,133.339168 150,111 L150,82.9882378 C140.478735,78.1305678 131.863294,72.248172 124.153679,65.3410505 C127.362309,70.6368571 130.848786,75.1475352 134.61311,78.8730846 C107.596314,71.2928169 86.1055278,58.4501118 70.1407506,40.3449693 C62.1597317,56.8095313 51.4461487,69.8143919 38.0000014,79.3595511 Z" id="react-path-408"></path></defs><mask id="react-mask-405" fill="white"><use xlink:href="#react-path-407"></use></mask><g id="Mask"></g><g id="Top/Long-Hair/Bob" mask="url(#react-mask-405)"><g transform="translate(-1.000000, 0.000000)"><g id="Hair" stroke-width="1" fill-rule="evenodd" transform="translate(39.000000, 19.000000)"><mask id="react-mask-406" fill="white"><use xlink:href="#react-path-408"></use></mask><use id="Combined-Shape" fill="#E6E6E6" xlink:href="#react-path-408"></use><g id="Skin/👶🏽-03-Brown" mask="url(#react-mask-406)" fill="#4A312C"><g transform="translate(0.000000, 0.000000) " id="Color"><rect x="0" y="0" width="264" height="280"></rect></g></g></g></g></g></g></g></g></g></g></svg>

<?xml version="1.0" encoding="UTF-8"?>
<svg style="height:200px;width:200px" version="1.1" viewBox="0 0 264 280" xmlns="http://www.w3.org/2000/svg" xmlns:xlink="http://www.w3.org/1999/xlink">
<desc>Created with getavataaars.com</desc>
<defs>
<path id="b" d="m124 144.61v18.389h4c39.765 0 72 32.235 72 72v9h-200v-9c-4.8697e-15 -39.765 32.235-72 72-72h4v-18.389c-17.237-8.1886-29.628-24.924-31.695-44.73-5.8248-0.82345-10.305-5.8291-10.305-11.881v-14c0-5.946 4.3246-10.882 10-11.834v-6.1659c0-30.928 25.072-56 56-56s56 25.072 56 56v6.1659c5.6754 0.95216 10 5.8881 10 11.834v14c0 6.0521-4.4803 11.058-10.305 11.881-2.0671 19.806-14.457 36.541-31.695 44.73z"/>
</defs>
<g id="l" fill="none" fill-rule="evenodd">
<g transform="translate(-825 -1100)">
<g transform="translate(825 1100)">
<g fill-rule="evenodd" mask="url(#react-mask-5)">
<g transform="translate(32 36)">
<mask id="e" fill="white">
<use xlink:href="#b"/>
</mask>
<use fill="#D0C6AC" xlink:href="#b"/>
<g id="n" fill="#FD9841" mask="url(#e)">
<g id="m" transform="translate(0)">
<rect width="264" height="280"/>
</g>
</g>
<path d="m156 79v23c0 30.928-25.072 56-56 56s-56-25.072-56-56v-23 15c0 30.928 25.072 56 56 56s56-25.072 56-56v-15z" fill="#000" fill-opacity=".1" mask="url(#e)"/>
</g>
<g transform="translate(0 170)">
<defs>
<path id="d" d="m165.96 29.295c36.976 3.0301 66.04 33.999 66.04 71.757v8.9483h-200v-8.9483c0-38.099 29.592-69.287 67.045-71.832-0.030146 0.37359-0.045406 0.7497-0.045406 1.1281 0 11.863 14.998 21.48 33.5 21.48s33.5-9.6169 33.5-21.48c0-0.35296-0.013277-0.70392-0.039528-1.0527z"/>
</defs>
<mask id="g" fill="white">
<use xlink:href="#d"/>
</mask>
<use fill="#E6E6E6" fill-rule="evenodd" xlink:href="#d"/>
<g fill="#B1E2FF" fill-rule="evenodd" mask="url(#g)">
<rect width="264" height="110"/>
</g>
<g fill="#000" fill-opacity=".16" fill-rule="evenodd" mask="url(#g)" opacity=".6">
<g transform="translate(92 4)">
<ellipse cx="40.5" cy="27.848" rx="39.635" ry="26.914"/>
</g>
</g>
</g>
<g transform="translate(76 82)" fill="#000">
<g transform="translate(2 52)">
<defs>
<path id="c" d="m35.118 15.128c1.0579 9.4917 9.1081 16.872 18.882 16.872 9.8042 0 17.874-7.4259 18.892-16.96 0.081909-0.76731-0.77502-2.0401-1.849-2.0401h-33.956c-1.0802 0-2.0748 1.1784-1.969 2.1281z"/>
</defs>
<mask id="f" fill="white">
<use xlink:href="#c"/>
</mask>
<use fill="#000000" fill-opacity=".7" fill-rule="evenodd" xlink:href="#c"/>
<rect x="39" y="2" width="31" height="16" rx="5" fill="#fff" fill-rule="evenodd" mask="url(#f)"/>
<g fill="#FF4F6D" fill-rule="evenodd" mask="url(#f)">
<g transform="translate(38 24)">
<circle cx="11" cy="11" r="11"/>
<circle cx="21" cy="11" r="11"/>
</g>
</g>
</g>
<g transform="translate(28 40)" fill-opacity=".16">
<path d="m16 8c0 4.4183 5.3726 8 12 8s12-3.5817 12-8"/>
</g>
<g transform="translate(0 8)">
<circle cx="30" cy="22" r="14" fill="#fff"/>
<circle cx="82" cy="22" r="14" fill="#fff"/>
<circle id="o" cx="30" cy="22" r="6" fill="#000" fill-opacity=".7"/>
<circle cx="82" cy="22" r="6" fill="#000" fill-opacity=".7"/>
</g>
<g fill-opacity=".6">
<g transform="translate(12 6)" fill-rule="nonzero">
<path id="k" d="m3.6302 11.159c3.9149-5.5087 14.648-8.5977 23.893-6.3274 1.0727 0.26343 2.1558-0.39262 2.4193-1.4653 0.26342-1.0727-0.39262-2.1558-1.4653-2.4193-10.737-2.6366-23.165 0.9404-28.107 7.8948-0.63986 0.90036-0.42869 2.149 0.47167 2.7888 0.90036 0.63986 2.149 0.42869 2.7888-0.47167z"/>
<path transform="translate(73 6.0392) scale(-1 1) translate(-73 -6.0392)" d="m61.63 11.159c3.9149-5.5087 14.648-8.5977 23.893-6.3274 1.0727 0.26343 2.1558-0.39262 2.4193-1.4653 0.26342-1.0727-0.39262-2.1558-1.4653-2.4193-10.737-2.6366-23.165 0.9404-28.107 7.8948-0.63986 0.90036-0.42869 2.149 0.47167 2.7888 0.90036 0.63986 2.149 0.42869 2.7888-0.47167z"/>
</g>
</g>
</g>
<g fill-rule="evenodd">
<defs>
<rect id="h" width="264" height="280"/>
<path id="a" d="m38 79.36v31.64c0 22.339 13.08 41.623 32 50.611v13.135c-19.637 2.6886-35.359 7.4179-46.615 6.2547-14.223-1.4697-21.888-30.205-22.385-55-0.61712-30.836 28.319-95.205 39-108 7.9231-9.4912 29.695-17.449 54-17 24.305 0.44936 46.862 5.8122 55 16 12.324 15.428 37.869 74.079 38 109 0.093345 24.8-9.5376 49.66-23 51-11.08 1.1029-26.525-1.4887-46-3.0027v-12.386c18.92-8.9877 32-28.272 32-50.611v-28.012c-9.5213-4.8577-18.137-10.74-25.846-17.647 3.2086 5.2958 6.6951 9.8065 10.459 13.532-27.017-7.5803-48.508-20.423-64.472-38.528-7.981 16.465-18.695 29.469-32.141 39.015z"/>
</defs>
<mask id="j" fill="white">
<use xlink:href="#h"/>
</mask>
<g mask="url(#j)">
<g transform="translate(-1)">
<g transform="translate(39 19)" fill-rule="evenodd">
<mask id="i" fill="white">
<use xlink:href="#a"/>
</mask>
<use fill="#E6E6E6" xlink:href="#a"/>
<g fill="#000" mask="url(#i)">
<g transform="translate(0)">
<rect width="264" height="280"/>
</g>
</g>
</g>
</g>
</g>
</g>
</g>
</g>
</g>
</g>
</svg>
